picto/attention-train-right.svg

<svg class="color-immutable" width="24" height="24" viewBox="0 0 24 24" fill="none" xmlns="http://www.w3.org/2000/svg"><g clip-path="url(#a)"><path d="M0 22.5v-21C0 .675.675 0 1.5 0h21c.825 0 1.5.675 1.5 1.5v21c0 .825-.675 1.5-1.5 1.5h-21C.675 24 0 23.325 0 22.5Z" fill="#2D327D"/><path d="M21.756 19.233 12.848 3.804c-.182-.302-.477-.518-.846-.519-.358-.001-.669.227-.847.521L2.247 19.234c-.171.308-.21.672-.027.992.178.31.531.466.874.473H20.91c.352-.007.687-.154.872-.473.181-.309.139-.692-.026-.993Z" fill="#fff"/><path d="M12.002 4.738 20.525 19.5H3.48l8.522-14.762Zm-.003-1.453c-.357 0-.667.227-.845.521L2.247 19.234c-.171.308-.21.672-.027.992.178.31.531.466.874.473H20.91c.352-.007.687-.154.872-.473.18-.309.138-.692-.027-.994L12.848 3.804c-.182-.302-.477-.518-.846-.519h-.003Z" fill="#EB0000"/><path d="M15.406 14.483v1.102a.116.116 0 0 0 .232 0v-.94h.102v2.513a.166.166 0 0 0 .332 0v-1.462h.106v1.462a.166.166 0 0 0 .333 0v-2.513h.101v.94a.116.116 0 0 0 .232 0v-1.102a.325.325 0 0 0-.325-.325h-.788a.326.326 0 0 0-.325.325ZM16.443 13.75a.326.326 0 0 0-.65 0 .326.326 0 0 0 .65 0Z" fill="#000"/><path d="M15 17.625h-2.25v1.5h.375V18H15v-.375Z" fill="#EB0000"/><path d="M18.375 17.625H15V18h3.375v-.375Z" fill="#000"/><path d="M12.75 12v.159l.159-.159h-.159ZM13.25 12l-.5.5v.159l.659-.659h-.159ZM13.75 12l-1 1v.159L13.909 12h-.159ZM14.75 12l-2 2v.159L14.909 12h-.159ZM15 12.25l-2.25 2.25v.159l2.25-2.25v-.159ZM15 12.75 12.75 15v.159l2.25-2.25v-.159ZM15 13.25l-2.25 2.25v.159l2.25-2.25v-.159ZM15 13.75 12.75 16v.159l2.25-2.25v-.159ZM15 14.25l-2.25 2.25v.159l2.25-2.25v-.159ZM15 14.75 12.75 17v.159l2.25-2.25v-.159ZM15 15.25l-2 2h.159L15 15.409v-.159ZM15 15.75l-1.5 1.5h.159L15 15.909v-.159ZM15 16.25l-1 1h.159l.841-.841v-.159ZM15 16.75l-.5.5h.159l.341-.341v-.159ZM14.25 12l-1.5 1.5v.159L14.409 12h-.159Z" fill="#EB0000"/><path d="M11.625 18.525h-.375v.6h.375v-.6ZM9 18.525h-.375v.6H9v-.6ZM12.269 12.644l-.538-.538a.42.42 0 0 0-.256-.106h-2.7a.42.42 0 0 0-.256.106l-.538.538a.42.42 0 0 0-.106.256v4.575c0 .082.03.21.067.284l.241.482a.267.267 0 0 0 .217.134h3.45c.082 0 .18-.06.217-.134l.241-.482a.757.757 0 0 0 .067-.284V12.9a.417.417 0 0 0-.106-.256ZM9.75 12.45h.75v.3h-.75v-.3ZM9 16.5h-.75v-.3H9v.3Zm3 0h-.75v-.3H12v.3Zm0-1.5H8.25v-1.875H12V15ZM11.119 10.875H9.131a.131.131 0 0 0-.131.131c0 .072.059.131.131.131h.862v.713h.263v-.713h.862a.131.131 0 0 0 .131-.131.13.13 0 0 0-.13-.131Z" fill="#000"/></g><defs><clipPath id="a"><path fill="#fff" d="M0 0h24v24H0z"/></clipPath></defs></svg>

<svg class="color-immutable" width="24" height="24" viewBox="0 0 24 24" fill="none" xmlns="http://www.w3.org/2000/svg"><path d="M0 22.5V1.5C0 0.675 0.675 0 1.5 0H22.5C23.325 0 24 0.675 24 1.5V22.5C24 23.325 23.325 24 22.5 24H1.5C0.675 24 0 23.325 0 22.5Z" fill="#2D327D"/><path d="M21.756 19.233L12.848 3.80401C12.666 3.50201 12.371 3.28601 12.002 3.28501C11.644 3.28401 11.333 3.51201 11.155 3.80601L2.247 19.234C2.076 19.542 2.037 19.906 2.22 20.226C2.398 20.536 2.751 20.692 3.094 20.699H20.91C21.262 20.692 21.597 20.545 21.782 20.226C21.963 19.917 21.921 19.534 21.756 19.233Z" fill="white"/><path d="M12.002 4.738L20.525 19.5H3.48L12.002 4.738ZM11.999 3.285C11.642 3.285 11.332 3.512 11.154 3.806L2.247 19.234C2.076 19.542 2.037 19.906 2.22 20.226C2.398 20.536 2.751 20.692 3.094 20.699H20.91C21.262 20.692 21.597 20.545 21.782 20.226C21.962 19.917 21.92 19.534 21.755 19.232L12.848 3.804C12.666 3.502 12.371 3.286 12.002 3.285C12.001 3.285 12 3.285 11.999 3.285Z" fill="#EB0000"/><path d="M15.406 14.483V15.585C15.406 15.649 15.458 15.701 15.522 15.701C15.586 15.701 15.638 15.649 15.638 15.585V14.645H15.74V17.158C15.74 17.25 15.815 17.324 15.906 17.324C15.998 17.324 16.072 17.249 16.072 17.158V15.696H16.178V17.158C16.178 17.25 16.253 17.324 16.345 17.324C16.437 17.324 16.511 17.249 16.511 17.158V14.645H16.612V15.585C16.612 15.649 16.664 15.701 16.728 15.701C16.792 15.701 16.844 15.649 16.844 15.585V14.483C16.844 14.304 16.699 14.158 16.519 14.158H15.731C15.552 14.158 15.406 14.304 15.406 14.483Z" fill="black"/><path d="M16.443 13.75C16.443 13.571 16.297 13.425 16.118 13.425C15.939 13.425 15.793 13.571 15.793 13.75C15.793 13.929 15.939 14.075 16.118 14.075C16.297 14.075 16.443 13.929 16.443 13.75Z" fill="black"/><path d="M15 17.625H13.125H12.75V18V19.125H13.125V18H15V17.625Z" fill="#EB0000"/><path d="M18.375 17.625H15V18H18.375V17.625Z" fill="black"/><path d="M12.75 12V12.159L12.909 12H12.75Z" fill="#EB0000"/><path d="M13.25 12L12.75 12.5V12.659L13.409 12H13.25Z" fill="#EB0000"/><path d="M13.75 12L12.75 13V13.159L13.909 12H13.75Z" fill="#EB0000"/><path d="M14.75 12L12.75 14V14.159L14.909 12H14.75Z" fill="#EB0000"/><path d="M15 12.25L12.75 14.5V14.659L15 12.409V12.25Z" fill="#EB0000"/><path d="M15 12.75L12.75 15V15.159L15 12.909V12.75Z" fill="#EB0000"/><path d="M15 13.25L12.75 15.5V15.659L15 13.409V13.25Z" fill="#EB0000"/><path d="M15 13.75L12.75 16V16.159L15 13.909V13.75Z" fill="#EB0000"/><path d="M15 14.25L12.75 16.5V16.659L15 14.409V14.25Z" fill="#EB0000"/><path d="M15 14.75L12.75 17V17.159L15 14.909V14.75Z" fill="#EB0000"/><path d="M15 15.25L13 17.25H13.159L15 15.409V15.25Z" fill="#EB0000"/><path d="M15 15.75L13.5 17.25H13.659L15 15.909V15.75Z" fill="#EB0000"/><path d="M15 16.25L14 17.25H14.159L15 16.409V16.25Z" fill="#EB0000"/><path d="M15 16.75L14.5 17.25H14.659L15 16.909V16.75Z" fill="#EB0000"/><path d="M14.25 12L12.75 13.5V13.659L14.409 12H14.25Z" fill="#EB0000"/><path d="M11.625 18.525H11.25V19.125H11.625V18.525Z" fill="black"/><path d="M9 18.525H8.625V19.125H9V18.525Z" fill="black"/><path d="M12.269 12.644L11.731 12.106C11.673 12.048 11.557 12 11.475 12H8.775C8.693 12 8.577 12.048 8.519 12.106L7.981 12.644C7.923 12.702 7.875 12.818 7.875 12.9V17.475C7.875 17.557 7.905 17.685 7.942 17.759L8.183 18.241C8.22 18.315 8.318 18.375 8.4 18.375H11.85C11.932 18.375 12.03 18.315 12.067 18.241L12.308 17.759C12.345 17.685 12.375 17.557 12.375 17.475V12.9C12.375 12.817 12.327 12.702 12.269 12.644ZM9.75 12.45H10.5V12.75H9.75V12.45ZM9 16.5H8.25V16.2H9V16.5ZM12 16.5H11.25V16.2H12V16.5ZM12 15H8.25V13.125H12V15Z" fill="black"/><path d="M11.119 10.875H9.131C9.059 10.875 9 10.934 9 11.006C9 11.078 9.059 11.137 9.131 11.137H9.993V11.85H10.256V11.137H11.118C11.19 11.137 11.249 11.078 11.249 11.006C11.25 10.934 11.191 10.875 11.119 10.875Z" fill="black"/></svg>
